!!!OTL: O DU FROEHLICHE
!!!ARE: Europa, Mitteleuropa, Deutschland
!!!SCT: B0747
!!!YEM: Copyright 1995, estate of Helmut Schaffrath.
**kern
*ICvox
*Ivox
*M4/4
*k[b-]
*F:
=1
{2cc
2dd
=2
4.cc
8b-
4a
4b-}
=3
{2cc
2dd
=4
4.cc
8b-
4a
4b-}
=5
{2cc
2cc
=6
2dd
4ee
4ff
=7
2ee
2dd
=8
2ee
2r}
=9
{4.g
8a
4g
4a
=10
4.b-
8cc
2b-}
=11
{4.a
8b-
4a
4b-
=12
4.cc
8dd
2cc}
=13
{4ff
4ee
4dd
4cc
=14
4ff
4dd
4cc
4b-
=15
2a
2g
=16
2f
2r}
==
!!!AGN: Weihnachts - Lied, religioes
!!!ONB: ESAC (Essen Associative Code) Database: BOEHME
!!!AMT: simple quadruple
!!!AIN: vox
!!!EED: Helmut Schaffrath
!!!EEV: 1.0
*-
